X: 7909
T: Con's Return
R: reel
M: 4/4
K: Dmajor
|:AG|FDFA dA (3Bcd|edef g2ag|faea dcAB|cded cAGE|
FDFA dA (3Bcd|edef g2ag|faef dcAG|EDCD D2:|
|:FA|dcde fd (3efg|abaf gfec|dAfd adfd|Beed cABc|
dcde fd (3efg|abaf g2fg|agaf cBAc|dfec d2:|

